apps/web/public/images/new-landing/logos/alta.svg

<svg fill="none" height="32" viewBox="0 0 72 32" width="72" xmlns="http://www.w3.org/2000/svg" xmlns:xlink="http://www.w3.org/1999/xlink"><clipPath id="a"><path d="m0 0h72v32h-72z"/></clipPath><g clip-path="url(#a)" fill="#606060"><path d="m61.6792.511963h.548l.324 2.727997c.2035 1.71177.9769 3.30533 2.1958 4.52425s2.8125 1.99232 4.5243 2.19575l2.7279.32404v.549l-2.7279.324c-1.7118.2034-3.3054.9768-4.5243 2.1957s-1.9923 2.8125-2.1958 4.5243l-.324 2.728h-.549l-.324-2.729c-.2034-1.7118-.9768-3.3054-2.1957-4.5243s-2.8125-1.9923-4.5243-2.1957l-2.728-.323v-.55l2.7291-.32304c1.7117-.20343 3.3053-.97683 4.5242-2.19575s1.9923-2.81248 2.1957-4.52425z"/><path d="m60.267 29.954v.066c-.653.816-1.86 1.403-3.264 1.403-2.024 0-3.133-1.142-3.33-2.872 0-.13-.065-1.045-.065-1.338-.391 2.252-2.643 4.177-5.385 4.177-2.579 0-4.7-1.305-4.7-4.047 0-3.558 3.655-4.341 7.572-5.06l2.48-.456v-2.285c0-2.154-.978-4.048-3.394-4.048-2.154 0-3.003 1.175-3.003 2.612 0 1.11.555 1.828 1.502 1.828.1627 0 .326-.0327.49-.098-.294 1.044-1.208 1.6-2.35 1.6-1.47 0-2.612-.948-2.612-2.514 0-2.22 2.448-4.048 6.038-4.048 4.57 0 7.181 1.632 7.181 5.582 0 2.611-.065 4.733-.065 6.822 0 1.893.555 2.905 1.991 2.905.327 0 .653-.098.914-.229zm-6.691-7.507-1.926.359c-2.905.587-4.243 1.763-4.243 4.047 0 1.991 1.044 2.84 2.48 2.84 1.894 0 3.59-1.632 3.624-4.341zm-11.328 3.329.294.033c-.294 3.133-1.6 5.68-4.831 5.68-2.71 0-4.472-1.633-4.472-4.995v-10.444h-2.122v-.26c2.938-.588 4.93-2.971 5.615-6.20301h.293v5.61501h5.027l-.163.848h-4.864v10.413c0 1.99.751 3.035 2.155 3.035 1.566 0 2.644-1.338 3.068-3.72m-13.202-19.06401v20.89001c0 2.154.229 2.774 1.763 3.492v.066h-7.312v-.066c1.534-.718 1.763-1.338 1.763-3.492v-17.3c0-1.99001-.457-2.84001-1.991-3.52501v-.065zm-19.058 6.62601-4.145 9.596h8.519zm-4.668 17.757v.065h-5.32v-.065c1.273-.686 2.122-2.09 3.068-4.211l8.422-18.90001h.13l9.042 19.52001c.979 2.09 1.403 2.905 2.643 3.59v.066h-7.865v-.065c.947-.425 1.469-.98 1.469-1.763 0-.555-.196-1.175-.522-1.926l-1.632-3.59h-9.305l-1.24 2.905c-.294.653-.523 1.37-.523 2.121 0 .98.653 1.828 1.632 2.253"/></g></svg>

<svg width="72" height="32" viewBox="0 0 72 32" fill="none" xmlns="http://www.w3.org/2000/svg">
<g clip-path="url(#clip0_481_2428)">
<path d="M61.6792 0.511963H62.2272L62.5512 3.23996C62.7547 4.95173 63.5281 6.54529 64.747 7.76421C65.9659 8.98313 67.5595 9.75653 69.2713 9.95996L71.9992 10.284V10.833L69.2713 11.157C67.5595 11.3604 65.9659 12.1338 64.747 13.3527C63.5281 14.5716 62.7547 16.1652 62.5512 17.877L62.2272 20.605H61.6782L61.3542 17.876C61.1508 16.1642 60.3774 14.5706 59.1585 13.3517C57.9396 12.1328 56.346 11.3594 54.6342 11.156L51.9062 10.833V10.283L54.6353 9.95996C56.347 9.75653 57.9406 8.98313 59.1595 7.76421C60.3784 6.54529 61.1518 4.95173 61.3552 3.23996L61.6792 0.511963Z" fill="#606060" style="fill:#606060;fill-opacity:1;"/>
<path d="M60.267 29.954V30.02C59.614 30.836 58.407 31.423 57.003 31.423C54.979 31.423 53.87 30.281 53.673 28.551C53.673 28.421 53.608 27.506 53.608 27.213C53.217 29.465 50.965 31.39 48.223 31.39C45.644 31.39 43.523 30.085 43.523 27.343C43.523 23.785 47.178 23.002 51.095 22.283L53.575 21.827V19.542C53.575 17.388 52.597 15.494 50.181 15.494C48.027 15.494 47.178 16.669 47.178 18.106C47.178 19.216 47.733 19.934 48.68 19.934C48.8427 19.934 49.006 19.9013 49.17 19.836C48.876 20.88 47.962 21.436 46.82 21.436C45.35 21.436 44.208 20.488 44.208 18.922C44.208 16.702 46.656 14.874 50.246 14.874C54.816 14.874 57.427 16.506 57.427 20.456C57.427 23.067 57.362 25.189 57.362 27.278C57.362 29.171 57.917 30.183 59.353 30.183C59.68 30.183 60.006 30.085 60.267 29.954ZM53.576 22.447L51.65 22.806C48.745 23.393 47.407 24.569 47.407 26.853C47.407 28.844 48.451 29.693 49.887 29.693C51.781 29.693 53.477 28.061 53.511 25.352L53.576 22.447ZM42.248 25.776L42.542 25.809C42.248 28.942 40.942 31.489 37.711 31.489C35.001 31.489 33.239 29.856 33.239 26.494V16.05H31.117V15.79C34.055 15.202 36.047 12.819 36.732 9.58699H37.025V15.202H42.052L41.889 16.05H37.025V26.463C37.025 28.453 37.776 29.498 39.18 29.498C40.746 29.498 41.824 28.16 42.248 25.778M29.046 6.71399V27.604C29.046 29.758 29.275 30.378 30.809 31.096V31.162H23.497V31.096C25.031 30.378 25.26 29.758 25.26 27.604V10.304C25.26 8.31399 24.803 7.46399 23.269 6.77899V6.71399H29.046ZM9.988 13.34L5.843 22.936H14.362L9.988 13.34ZM5.32 31.097V31.162H0V31.097C1.273 30.411 2.122 29.007 3.068 26.886L11.49 7.98599H11.62L20.662 27.506C21.641 29.596 22.065 30.411 23.305 31.096V31.162H15.44V31.097C16.387 30.672 16.909 30.117 16.909 29.334C16.909 28.779 16.713 28.159 16.387 27.408L14.755 23.818H5.45L4.21 26.723C3.916 27.376 3.687 28.093 3.687 28.844C3.687 29.824 4.34 30.672 5.319 31.097" fill="#606060" style="fill:#606060;fill-opacity:1;"/>
</g>
<defs>
<clipPath id="clip0_481_2428">
<rect width="72" height="32" fill="white" style="fill:white;fill-opacity:1;"/>
</clipPath>
</defs>
</svg>
